X:1
T:Morfa Rhuddlan (fiddle harmony)
M:3/4
R:
K:Gmin
D2 | G,2 z2 D2 | E2 z2 D2 | C2 z2 z2 | D2 DCB,A, |
G,2 z2 D2 | E2 z2 z2 | E2 D4 |1 G,4 :|2 G,6 |
|: F2 z2 d2 | F2 z2 z2 | F2 z2 z2 | F2 D4 |
F2 z2 d2 | F2 z2 z2 | F2 z2 z2 | F2 D4 |
D2 z2 D2 | D2 z2 D2 | D2 z2 D2 | A2 DCB,A, |
G,2 z2 D2 | E2 z2 z2 | E2 D4 |1 G,6 :|2 G,4 ||
